web/test-site/images/logo.svg

<svg fill="none" height="48" viewBox="0 0 186 48" width="186" xmlns="http://www.w3.org/2000/svg"><path d="m.522727 47h20.886373c10.2954 0 16.2045-5.5 16.2045-13.0227 0-6.7273-4.8863-10.9546-10.5227-11.2046v-.4545c5.1136-1.0682 8.7046-4.7727 8.7046-10.0909 0-7.02276-5.4091-11.772756-15.8637-11.772756h-19.409073zm11.249973-9.0682v-11.0909h7.1591c4.2955 0 6.9318 2.2727 6.9318 5.8409 0 3.2955-2.2727 5.25-7.1363 5.25zm0-18.3409v-10.20454h6.4091c3.75 0 6.1364 1.93184 6.1364 5.02274 0 3.2727-2.6364 5.1818-6.3182 5.1818zm44.3455 28.0682c10.9773 0 17.6363-7.25 17.6363-18 0-10.7727-6.659-18.0227-17.6363-18.0227s-17.6364 7.25-17.6364 18.0227c0 10.75 6.6591 18 17.6364 18zm.0682-8.3864c-4.1137 0-6.3864-3.9091-6.3864-9.6818 0-5.7954 2.2727-9.7273 6.3864-9.7273 3.9772 0 6.25 3.9319 6.25 9.7273 0 5.7727-2.2728 9.6818-6.25 9.6818zm36.3568 8.3864c10.9768 0 17.6368-7.25 17.6368-18 0-10.7727-6.66-18.0227-17.6368-18.0227-10.9773 0-17.6364 7.25-17.6364 18.0227 0 10.75 6.6591 18 17.6364 18zm.0682-8.3864c-4.1137 0-6.3864-3.9091-6.3864-9.6818 0-5.7954 2.2727-9.7273 6.3864-9.7273 3.9772 0 6.25 3.9319 6.25 9.7273 0 5.7727-2.2728 9.6818-6.25 9.6818zm39.7656-27.1818h-6.295v-8.36363h-11.114v8.36363h-4.613v8.1818h4.613v16.9773c-.068 7.0682 4.523 10.6136 12.364 10.25 2.682-.1364 4.613-.6818 5.682-1l-1.682-8.0227c-.477.1136-1.591.3409-2.432.3409-1.795 0-2.818-.7273-2.818-2.7955v-15.75h6.295zm14.334 15c.023-3.9773 2.387-6.3409 5.909-6.3409 3.569 0 5.637 2.2955 5.614 6.1818v20.0682h11.114v-22.25c.022-7.9091-4.796-13.1136-12.137-13.1136-5.227 0-8.909 2.5681-10.477 6.8636h-.386v-18.045456h-10.75v46.545456h11.113zm32.624 20.5682c3.114 0 5.864-2.6364 5.909-5.9091-.045-3.2273-2.795-5.8409-5.909-5.8409-3.273 0-5.954 2.6136-5.909 5.8409-.045 3.2727 2.636 5.9091 5.909 5.9091z" fill="#fff"/></svg>

<svg width="186" height="48" viewBox="0 0 186 48" fill="none" xmlns="http://www.w3.org/2000/svg">
<path d="M0.522727 47H21.4091C31.7045 47 37.6136 41.5 37.6136 33.9773C37.6136 27.25 32.7273 23.0227 27.0909 22.7727V22.3182C32.2045 21.25 35.7955 17.5455 35.7955 12.2273C35.7955 5.20454 30.3864 0.454544 19.9318 0.454544H0.522727V47ZM11.7727 37.9318V26.8409H18.9318C23.2273 26.8409 25.8636 29.1136 25.8636 32.6818C25.8636 35.9773 23.5909 37.9318 18.7273 37.9318H11.7727ZM11.7727 19.5909V9.38636H18.1818C21.9318 9.38636 24.3182 11.3182 24.3182 14.4091C24.3182 17.6818 21.6818 19.5909 18 19.5909H11.7727ZM56.1182 47.6591C67.0955 47.6591 73.7545 40.4091 73.7545 29.6591C73.7545 18.8864 67.0955 11.6364 56.1182 11.6364C45.1409 11.6364 38.4818 18.8864 38.4818 29.6591C38.4818 40.4091 45.1409 47.6591 56.1182 47.6591ZM56.1864 39.2727C52.0727 39.2727 49.8 35.3636 49.8 29.5909C49.8 23.7955 52.0727 19.8636 56.1864 19.8636C60.1636 19.8636 62.4364 23.7955 62.4364 29.5909C62.4364 35.3636 60.1636 39.2727 56.1864 39.2727ZM92.5432 47.6591C103.52 47.6591 110.18 40.4091 110.18 29.6591C110.18 18.8864 103.52 11.6364 92.5432 11.6364C81.5659 11.6364 74.9068 18.8864 74.9068 29.6591C74.9068 40.4091 81.5659 47.6591 92.5432 47.6591ZM92.6114 39.2727C88.4977 39.2727 86.225 35.3636 86.225 29.5909C86.225 23.7955 88.4977 19.8636 92.6114 19.8636C96.5886 19.8636 98.8614 23.7955 98.8614 29.5909C98.8614 35.3636 96.5886 39.2727 92.6114 39.2727ZM132.377 12.0909H126.082V3.72727H114.968V12.0909H110.355V20.2727H114.968V37.25C114.9 44.3182 119.491 47.8636 127.332 47.5C130.014 47.3636 131.945 46.8182 133.014 46.5L131.332 38.4773C130.855 38.5909 129.741 38.8182 128.9 38.8182C127.105 38.8182 126.082 38.0909 126.082 36.0227V20.2727H132.377V12.0909ZM146.711 27.0909C146.734 23.1136 149.098 20.75 152.62 20.75C156.189 20.75 158.257 23.0455 158.234 26.9318V47H169.348V24.75C169.37 16.8409 164.552 11.6364 157.211 11.6364C151.984 11.6364 148.302 14.2045 146.734 18.5H146.348V0.454544H135.598V47H146.711V27.0909ZM179.335 47.6591C182.449 47.6591 185.199 45.0227 185.244 41.75C185.199 38.5227 182.449 35.9091 179.335 35.9091C176.062 35.9091 173.381 38.5227 173.426 41.75C173.381 45.0227 176.062 47.6591 179.335 47.6591Z" fill="white"/>
</svg>
